assets/_img/logo_canlis.svg

<?xml version="1.0" encoding="UTF-8" standalone="no"?>
<svg width="171px" height="26px" viewBox="0 0 171 26" version="1.1" xmlns="http://www.w3.org/2000/svg" xmlns:xlink="http://www.w3.org/1999/xlink">
    <!-- Generator: Sketch 3.8.1 (29687) - http://www.bohemiancoding.com/sketch -->
    <title>CANLIS</title>
    <desc>Created with Sketch.</desc>
    <defs></defs>
    <g id="Page-1" stroke="none" stroke-width="1" fill="none" fill-rule="evenodd">
        <path d="M20.525,23.635 L20.84,21.57 L20.7,21.43 C20.3733317,21.686668 19.9708357,21.984165 19.4925,22.3225 C19.0141643,22.660835 18.477503,22.9758319 17.8825,23.2675 C17.287497,23.5591681 16.6341702,23.8099989 15.9225,24.02 C15.2108298,24.230001 14.4350042,24.335 13.595,24.335 C12.2183265,24.335 10.9408392,24.1133355 9.7625,23.67 C8.58416077,23.2266644 7.55750438,22.5441713 6.6825,21.6225 C5.80749563,20.7008287 5.12500245,19.5341737 4.635,18.1225 C4.14499755,16.7108263 3.9,15.0366763 3.9,13.1 C3.9,11.1633236 4.14499755,9.48917373 4.635,8.0775 C5.12500245,6.66582628 5.80749563,5.49917128 6.6825,4.5775 C7.55750438,3.65582872 8.58416077,2.97333555 9.7625,2.53 C10.9408392,2.08666445 12.2183265,1.865 13.595,1.865 C14.4350042,1.865 15.2049965,1.97583222 15.905,2.1975 C16.6050035,2.41916778 17.2349972,2.6933317 17.795,3.02 C18.3550028,3.3466683 18.8449979,3.68499825 19.265,4.035 C19.6850021,4.38500175 20.0116655,4.6999986 20.245,4.98 L20.455,4.91 C20.5250004,4.5366648 20.6183327,4.0700028 20.735,3.51 C20.8516672,2.9499972 21.0033324,2.5066683 21.19,2.18 C20.2099951,1.73666445 19.084173,1.35750158 17.8125,1.0425 C16.540827,0.727498425 15.1350077,0.57 13.595,0.57 C11.6583236,0.57 9.88500805,0.8499972 8.275,1.41 C6.66499195,1.9700028 5.28250578,2.7866613 4.1275,3.86 C2.97249422,4.9333387 2.07416987,6.24582557 1.4325,7.7975 C0.790830125,9.34917443 0.47,11.1166568 0.47,13.1 C0.47,15.0833432 0.790830125,16.8508256 1.4325,18.4025 C2.07416987,19.9541744 2.96082768,21.2666613 4.0925,22.34 C5.22417232,23.4133387 6.57165885,24.2124974 8.135,24.7375 C9.69834115,25.2625026 11.4016575,25.525 13.245,25.525 C14.1083377,25.525 14.9366627,25.4550007 15.73,25.315 C16.5233373,25.1749993 17.2408301,25.0175009 17.8825,24.8425 C18.5241699,24.6674991 19.0724977,24.4691678 19.5275,24.2475 C19.9825023,24.0258322 20.314999,23.8216676 20.525,23.635 L20.525,23.635 Z M39.2149998,14.185 C39.8216695,14.185 40.4516632,14.1966666 41.1049998,14.22 C41.7583364,14.2433334 42.3883301,14.255 42.9949998,14.255 C43.6483364,14.255 44.3016632,14.2491667 44.9549998,14.2375 C45.6083364,14.2258333 46.2616632,14.2083334 46.9149998,14.185 L43.0299998,5.295 L39.2149998,14.185 Z M54.7199998,25.07 C54.3933315,25.0233331 54.0841679,25 53.7924998,25 L52.8649998,25 L51.9374998,25 C51.6458317,25 51.3366681,25.0233331 51.0099998,25.07 C50.8466657,24.5333307 50.6250012,23.8858371 50.3449998,23.1275 C50.0649984,22.3691629 49.7558348,21.5758375 49.4174998,20.7475 C49.0791648,19.9191625 48.7350016,19.0791709 48.3849998,18.2275 C48.0349981,17.3758291 47.7083347,16.5650039 47.4049998,15.795 C46.6583294,15.7716665 45.9000037,15.7541667 45.1299998,15.7425 C44.359996,15.7308333 43.5900037,15.725 42.8199998,15.725 C42.0966629,15.725 41.3850033,15.7308333 40.6849998,15.7425 C39.9849963,15.7541667 39.2733368,15.7716665 38.5499998,15.795 C37.8033294,17.6150091 37.1266695,19.3474918 36.5199998,20.9925 C35.9133301,22.6375082 35.4583347,23.9966613 35.1549998,25.07 C34.7583312,25.0233331 34.3266688,25 33.8599998,25 C33.3933308,25 32.9616685,25.0233331 32.5649998,25.07 C34.4550093,20.9866463 36.2983242,16.9266869 38.0949998,12.89 C39.8916755,8.85331315 41.6999907,4.74668755 43.5199998,0.57 L44.1849998,0.57 C44.7450026,1.9233401 45.3516632,3.38749212 46.0049998,4.9625 C46.6583364,6.53750787 47.3233298,8.12999195 47.9999998,9.74 C48.6766699,11.350008 49.3533298,12.9483254 50.0299998,14.535 C50.7066699,16.1216746 51.3424968,17.5974932 51.9374998,18.9625 C52.5325028,20.3275068 53.0691641,21.5466613 53.5474998,22.62 C54.0258355,23.6933387 54.416665,24.5099972 54.7199998,25.07 L54.7199998,25.07 Z M89.6499996,25.525 L90.1399996,25.525 L90.1399996,24.37 C90.1399996,23.8099972 90.1341663,23.1508371 90.1224996,22.3925 C90.1108329,21.6341629 90.0991663,20.8175044 90.0874996,19.9425 C90.0758329,19.0674956 90.0641663,18.1983376 90.0524996,17.335 C90.0408329,16.4716624 90.0349996,15.6433373 90.0349996,14.85 L90.0349996,12.75 C90.0349996,12.07333 90.0583327,11.1750056 90.1049996,10.055 C90.1516665,8.9349944 90.204166,7.7916725 90.2624996,6.625 C90.3208332,5.4583275 90.379166,4.3616718 90.4374996,3.335 C90.4958332,2.3083282 90.5483327,1.5383359 90.5949996,1.025 C90.1283306,1.14166725 89.755001,1.2 89.4749996,1.2 C89.1483313,1.2 88.7516686,1.14166725 88.2849996,1.025 C88.4016669,3.0783436 88.4774994,5.26582172 88.5124996,7.5875 C88.5474998,9.90917827 88.5649996,12.2949877 88.5649996,14.745 L88.5649996,19.505 C87.4916609,18.4316613 86.2375068,17.130841 84.8024996,15.6025 C83.3674924,14.074159 81.8508409,12.4525086 80.2524996,10.7375 C78.6541583,9.02249142 77.0441744,7.28417547 75.4224996,5.5225 C73.8008248,3.76082453 72.2783401,2.1100077 70.8549996,0.57 L70.2949996,0.57 C70.3416665,1.3633373 70.3708329,2.56499195 70.3824996,4.175 C70.3941663,5.78500805 70.3999996,7.7099888 70.3999996,9.95 C70.3999996,10.7200039 70.3883331,11.5949951 70.3649996,12.575 C70.3416662,13.5550049 70.3124998,14.5583282 70.2774996,15.585 C70.2424994,16.6116718 70.1958332,17.6383282 70.1374996,18.665 C70.079166,19.6916718 70.0266665,20.6424956 69.9799996,21.5175 C69.9333327,22.3925044 69.8808332,23.1449968 69.8224996,23.775 C69.764166,24.4050031 69.7116665,24.8366655 69.6649996,25.07 C70.0616683,25.0233331 70.4933306,25 70.9599996,25 C71.4033352,25 71.8116644,25.0233331 72.1849996,25.07 C72.1616662,24.8833324 72.1383331,24.5275026 72.1149996,24.0025 C72.0916662,23.4774974 72.0683331,22.8650035 72.0449996,22.165 C72.0216662,21.4649965 71.9983331,20.7066708 71.9749996,19.89 C71.9516662,19.0733293 71.9341663,18.2683373 71.9224996,17.475 C71.9108329,16.6816627 71.8991663,15.9233369 71.8874996,15.2 C71.8758329,14.4766631 71.8699996,13.8700025 71.8699996,13.38 C71.8699996,11.4899905 71.8816662,9.99667215 71.9049996,8.9 C71.9283331,7.80332785 71.9516662,6.9283366 71.9749996,6.275 C75.0083481,9.4950161 78.0416511,12.7324837 81.0749996,15.9875 C84.1083481,19.2425163 86.9666529,22.4216512 89.6499996,25.525 L89.6499996,25.525 Z M108.374999,10.09 L108.374999,16.11 C108.374999,17.6500077 108.345833,19.1666592 108.287499,20.66 C108.229166,22.1533408 108.165,23.6233261 108.094999,25.07 C109.215005,25.0233331 110.294161,25 111.332499,25 L114.569999,25 L117.789999,25 C118.863338,25 119.936661,25.0233331 121.009999,25.07 C120.893332,24.6966648 120.834999,24.381668 120.834999,24.125 C120.834999,23.8449986 120.893332,23.4950021 121.009999,23.075 C119.259991,23.3083345 117.626674,23.4424998 116.109999,23.4775 C114.593325,23.5125002 113.006674,23.53 111.349999,23.53 C111.326666,21.8266582 111.303333,19.8958441 111.279999,17.7375 C111.256666,15.5791559 111.244999,13.0300147 111.244999,10.09 C111.244999,8.5499923 111.274166,7.03917408 111.332499,5.5575 C111.390833,4.07582593 111.454999,2.5650077 111.524999,1.025 C111.221665,1.0716669 110.930001,1.11249982 110.649999,1.1475 C110.369998,1.18250018 110.090001,1.2 109.809999,1.2 C109.529998,1.2 109.250001,1.18250018 108.969999,1.1475 C108.689998,1.11249982 108.398334,1.0716669 108.094999,1.025 C108.165,2.5650077 108.229166,4.07582593 108.287499,5.5575 C108.345833,7.03917408 108.374999,8.5499923 108.374999,10.09 L108.374999,10.09 Z M137.074999,10.09 L137.074999,16.11 C137.074999,17.6500077 137.045833,19.1666592 136.987499,20.66 C136.929166,22.1533408 136.865,23.6233261 136.794999,25.07 C137.331669,25.0233331 137.90333,25 138.509999,25 C139.116669,25 139.68833,25.0233331 140.224999,25.07 C140.154999,23.6233261 140.090833,22.1533408 140.032499,20.66 C139.974166,19.1666592 139.944999,17.6500077 139.944999,16.11 L139.944999,10.09 C139.944999,8.5499923 139.974166,7.03917408 140.032499,5.5575 C140.090833,4.07582593 140.154999,2.5650077 140.224999,1.025 C139.921664,1.0716669 139.630001,1.11249982 139.349999,1.1475 C139.069998,1.18250018 138.790001,1.2 138.509999,1.2 C138.229998,1.2 137.950001,1.18250018 137.669999,1.1475 C137.389998,1.11249982 137.098334,1.0716669 136.794999,1.025 C136.865,2.5650077 136.929166,4.07582593 136.987499,5.5575 C137.045833,7.03917408 137.074999,8.5499923 137.074999,10.09 L137.074999,10.09 Z M157.234999,20.52 L156.814999,20.52 C156.744999,21.19667 156.669166,21.7508312 156.587499,22.1825 C156.505832,22.6141688 156.36,23.0983307 156.149999,23.635 C156.756669,24.1250025 157.509161,24.5624981 158.407499,24.9475 C159.305837,25.3325019 160.478325,25.525 161.924999,25.525 C163.278339,25.525 164.485827,25.3325019 165.547499,24.9475 C166.609171,24.5624981 167.507495,24.0141702 168.242499,23.3025 C168.977503,22.5908298 169.537497,21.7566714 169.922499,20.8 C170.307501,19.8433285 170.499999,18.8283387 170.499999,17.755 C170.499999,16.4716603 170.225835,15.4450039 169.677499,14.675 C169.129163,13.9049961 168.44667,13.2750024 167.629999,12.785 C166.813328,12.2949976 165.932504,11.880835 164.987499,11.5425 C164.042494,11.204165 163.16167,10.8191688 162.344999,10.3875 C161.528328,9.95583118 160.845835,9.42500315 160.297499,8.795 C159.749163,8.16499685 159.474999,7.30167215 159.474999,6.205 C159.474999,5.57499685 159.585831,4.99166935 159.807499,4.455 C160.029167,3.91833065 160.344164,3.45750193 160.752499,3.0725 C161.160834,2.68749808 161.639163,2.39000105 162.187499,2.18 C162.735835,1.96999895 163.336662,1.865 163.989999,1.865 C164.643336,1.865 165.20333,1.97583222 165.669999,2.1975 C166.136668,2.41916778 166.539164,2.6933317 166.877499,3.02 C167.215834,3.3466683 167.484165,3.70249807 167.682499,4.0875 C167.880833,4.47250192 168.038332,4.8283317 168.154999,5.155 L168.574999,5.155 C168.715,4.47832995 168.854998,3.91833555 168.994999,3.475 C169.135,3.03166445 169.309998,2.61166865 169.519999,2.215 C168.819996,1.6549972 168.06167,1.24083468 167.244999,0.9725 C166.428328,0.704165325 165.460005,0.57 164.339999,0.57 C163.173327,0.57 162.123337,0.7333317 161.189999,1.06 C160.256661,1.3866683 159.457502,1.84166375 158.792499,2.425 C158.127496,3.00833625 157.620001,3.70249598 157.269999,4.5075 C156.919997,5.31250403 156.744999,6.2049951 156.744999,7.185 C156.744999,8.56167355 157.019163,9.65832925 157.567499,10.475 C158.115835,11.2916708 158.798328,11.9624974 159.614999,12.4875 C160.43167,13.0125026 161.312494,13.4499982 162.257499,13.8 C163.202504,14.1500018 164.083328,14.5349979 164.899999,14.955 C165.71667,15.3750021 166.399163,15.8999969 166.947499,16.53 C167.495835,17.1600031 167.769999,18.0116613 167.769999,19.085 C167.769999,19.7850035 167.653334,20.4441636 167.419999,21.0625 C167.186665,21.6808364 166.854168,22.2174977 166.422499,22.6725 C165.99083,23.1275023 165.465835,23.4891653 164.847499,23.7575 C164.229163,24.0258347 163.535003,24.16 162.764999,24.16 C162.018329,24.16 161.341669,24.0491678 160.734999,23.8275 C160.128329,23.6058322 159.597501,23.3200017 159.142499,22.97 C158.687497,22.6199983 158.302501,22.2291688 157.987499,21.7975 C157.672497,21.3658312 157.421667,20.9400021 157.234999,20.52 L157.234999,20.52 Z" id="CANLIS" fill="#000000"></path>
    </g>
</svg>

<svg width="171" height="26" xmlns="http://www.w3.org/2000/svg"><path d="M20.525 23.635l.315-2.065-.14-.14c-.327.257-.73.554-1.207.893-.479.338-1.015.653-1.61.944-.596.292-1.249.543-1.96.753a8.195 8.195 0 0 1-2.328.315c-1.377 0-2.654-.222-3.833-.665a8.158 8.158 0 0 1-3.08-2.048c-.875-.921-1.557-2.088-2.047-3.5-.49-1.411-.735-3.085-.735-5.022 0-1.937.245-3.61.735-5.022.49-1.412 1.172-2.579 2.048-3.5a8.158 8.158 0 0 1 3.08-2.048c1.178-.443 2.455-.665 3.832-.665.84 0 1.61.11 2.31.332.7.222 1.33.496 1.89.823.56.327 1.05.665 1.47 1.015.42.35.747.665.98.945l.21-.07c.07-.373.163-.84.28-1.4.117-.56.268-1.003.455-1.33-.98-.443-2.106-.822-3.378-1.138C16.541.728 15.136.57 13.596.57c-1.937 0-3.71.28-5.32.84-1.61.56-2.992 1.377-4.147 2.45-1.156 1.073-2.054 2.386-2.696 3.938C.792 9.348.47 11.117.47 13.1c0 1.983.32 3.75.963 5.303.641 1.551 1.528 2.864 2.66 3.937 1.131 1.073 2.479 1.872 4.042 2.398 1.563.525 3.267.787 5.11.787.863 0 1.692-.07 2.485-.21.793-.14 1.51-.297 2.152-.473a9.475 9.475 0 0 0 1.645-.595c.456-.221.788-.425.998-.612zm18.69-9.45c.607 0 1.237.012 1.89.035.653.023 1.283.035 1.89.035a109.775 109.775 0 0 0 3.92-.07l-3.885-8.89-3.815 8.89zM54.72 25.07a6.571 6.571 0 0 0-.928-.07h-1.855c-.291 0-.6.023-.927.07a36.13 36.13 0 0 0-.665-1.942c-.28-.759-.59-1.552-.928-2.38-.338-.829-.682-1.669-1.032-2.52-.35-.852-.677-1.663-.98-2.433a141.457 141.457 0 0 0-4.585-.07 128.14 128.14 0 0 0-4.27.07 155.387 155.387 0 0 0-2.03 5.197c-.607 1.646-1.062 3.005-1.365 4.078-.397-.047-.828-.07-1.295-.07-.467 0-.898.023-1.295.07a907.93 907.93 0 0 0 5.53-12.18C39.892 8.853 41.7 4.747 43.52.57h.665l1.82 4.393a1110.61 1110.61 0 0 0 4.025 9.572 608.945 608.945 0 0 0 1.907 4.427 494.424 494.424 0 0 0 1.61 3.658c.479 1.073.87 1.89 1.173 2.45zm34.93.455h.49V24.37c0-.56-.006-1.22-.018-1.978l-.035-2.45-.035-2.607c-.011-.863-.017-1.692-.017-2.485v-2.1c0-.677.023-1.575.07-2.695a486.071 486.071 0 0 1 .332-6.72c.059-1.027.111-1.797.158-2.31-.467.117-.84.175-1.12.175-.327 0-.723-.058-1.19-.175.117 2.053.192 4.24.227 6.563.035 2.321.053 4.707.053 7.157v4.76a175.56 175.56 0 0 1-3.763-3.902c-1.435-1.529-2.951-3.15-4.55-4.865a1154.195 1154.195 0 0 1-4.83-5.215A3369.634 3369.634 0 0 0 70.855.57h-.56c.047.793.076 1.995.087 3.605.012 1.61.018 3.535.018 5.775 0 .77-.012 1.645-.035 2.625-.023.98-.053 1.983-.088 3.01a135.944 135.944 0 0 1-.14 3.08c-.058 1.027-.11 1.977-.157 2.852-.047.876-.1 1.628-.158 2.258-.058.63-.11 1.062-.157 1.295.397-.047.828-.07 1.295-.07.443 0 .852.023 1.225.07a16.271 16.271 0 0 1-.07-1.067 168.33 168.33 0 0 1-.07-1.838c-.023-.7-.047-1.458-.07-2.275-.023-.817-.04-1.622-.053-2.415-.011-.793-.023-1.552-.035-2.275-.011-.723-.017-1.33-.017-1.82 0-1.89.012-3.383.035-4.48.023-1.097.047-1.972.07-2.625 3.033 3.22 6.067 6.457 9.1 9.713a345.022 345.022 0 0 1 8.575 9.537zm18.725-15.435v6.02c0 1.54-.03 3.057-.088 4.55a474.342 474.342 0 0 1-.192 4.41c1.12-.047 2.2-.07 3.237-.07h6.458c1.073 0 2.147.023 3.22.07-.117-.373-.175-.688-.175-.945 0-.28.058-.63.175-1.05-1.75.233-3.383.367-4.9.402-1.517.036-3.103.053-4.76.053-.023-1.703-.047-3.634-.07-5.793a720.203 720.203 0 0 1-.035-7.647c0-1.54.03-3.05.087-4.532.059-1.482.123-2.993.193-4.533-.303.047-.595.087-.875.123a6.766 6.766 0 0 1-1.68 0c-.28-.036-.572-.076-.875-.123.07 1.54.134 3.05.192 4.533.059 1.481.088 2.992.088 4.532zm28.7 0v6.02c0 1.54-.03 3.057-.088 4.55a474.342 474.342 0 0 1-.192 4.41c.537-.047 1.108-.07 1.715-.07s1.178.023 1.715.07a474.41 474.41 0 0 1-.193-4.41c-.058-1.493-.087-3.01-.087-4.55v-6.02c0-1.54.03-3.05.087-4.532.059-1.482.123-2.993.193-4.533-.303.047-.595.087-.875.123a6.766 6.766 0 0 1-1.68 0c-.28-.036-.572-.076-.875-.123.07 1.54.134 3.05.192 4.533.059 1.481.088 2.992.088 4.532zm20.16 10.43h-.42c-.07.677-.146 1.23-.228 1.663a8.263 8.263 0 0 1-.437 1.452c.607.49 1.36.927 2.257 1.313.899.385 2.071.577 3.518.577 1.353 0 2.56-.192 3.622-.577 1.062-.386 1.96-.934 2.695-1.646a7.17 7.17 0 0 0 1.68-2.502 8.079 8.079 0 0 0 .578-3.045c0-1.283-.274-2.31-.823-3.08a6.747 6.747 0 0 0-2.047-1.89 14.847 14.847 0 0 0-2.643-1.242 20.264 20.264 0 0 1-2.642-1.155c-.817-.432-1.5-.963-2.048-1.593s-.822-1.493-.822-2.59c0-.63.11-1.213.332-1.75.222-.537.537-.997.945-1.383a4.319 4.319 0 0 1 1.435-.892 5 5 0 0 1 1.803-.315c.653 0 1.213.11 1.68.332.467.222.87.496 1.207.823.339.327.607.682.805 1.068.199.385.356.74.473 1.067h.42c.14-.677.28-1.237.42-1.68.14-.443.315-.863.525-1.26a7.239 7.239 0 0 0-2.275-1.242C166.428.704 165.46.57 164.34.57c-1.167 0-2.217.163-3.15.49-.933.327-1.732.782-2.398 1.365a5.832 5.832 0 0 0-1.522 2.083c-.35.805-.525 1.697-.525 2.677 0 1.377.274 2.473.822 3.29a7.01 7.01 0 0 0 2.048 2.013 13.61 13.61 0 0 0 2.642 1.312c.946.35 1.826.735 2.643 1.155.817.42 1.5.945 2.047 1.575.549.63.823 1.482.823 2.555 0 .7-.117 1.36-.35 1.977a4.743 4.743 0 0 1-.998 1.61 4.743 4.743 0 0 1-1.575 1.085c-.618.269-1.312.403-2.082.403-.747 0-1.423-.11-2.03-.332a5.777 5.777 0 0 1-2.747-2.03 7.011 7.011 0 0 1-.753-1.278z" fill="#000" fill-rule="evenodd"/></svg>
